src/img/icon.svg

<?xml version="1.0" encoding="UTF-8" standalone="no"?>
<svg width="268px" height="268px" viewBox="0 0 268 268" version="1.1" xmlns="http://www.w3.org/2000/svg" xmlns:xlink="http://www.w3.org/1999/xlink">
    <defs>
        <linearGradient x1="50%" y1="0%" x2="50%" y2="100%" id="linearGradient-1">
            <stop stop-color="#FDFDFD" offset="0%"></stop>
            <stop stop-color="#E0E3E7" offset="100%"></stop>
        </linearGradient>
        <linearGradient x1="50%" y1="0%" x2="50%" y2="100%" id="linearGradient-2">
            <stop stop-color="#FBDA61" offset="0%"></stop>
            <stop stop-color="#F76B1C" offset="100%"></stop>
        </linearGradient>
        <filter x="-50%" y="-50%" width="200%" height="200%" filterUnits="objectBoundingBox" id="filter-3">
            <feOffset dx="0" dy="1" in="SourceAlpha" result="shadowOffsetOuter1"></feOffset>
            <feGaussianBlur stdDeviation="2" in="shadowOffsetOuter1" result="shadowBlurOuter1"></feGaussianBlur>
            <feColorMatrix values="0 0 0 0 0   0 0 0 0 0   0 0 0 0 0  0 0 0 0.245 0" in="shadowBlurOuter1" type="matrix" result="shadowMatrixOuter1"></feColorMatrix>
            <feMerge>
                <feMergeNode in="shadowMatrixOuter1"></feMergeNode>
                <feMergeNode in="SourceGraphic"></feMergeNode>
            </feMerge>
        </filter>
    </defs>
    <g id="Page-1" stroke="none" stroke-width="1" fill="none" fill-rule="evenodd">
        <g id="iTunes-Icon" transform="translate(6.000000, 6.000000)">
            <circle id="Icon-Background" stroke="url(#linearGradient-2)" stroke-width="11" fill="url(#linearGradient-1)" filter="url(#filter-3)" cx="128" cy="128" r="128"></circle>
            <path d="M150.334591,181.229286 L185.697267,93.7035915 L184.964232,74.2394838 C184.91066,72.7435924 184.014935,71.4671166 182.627874,70.9067074 C181.238465,70.3453499 179.709766,70.6422948 178.633045,71.6787881 L170.671602,79.3224434 C175.898851,63.3775922 175.635165,46.1506791 169.837074,30.2832462 C169.352825,28.9546107 168.324274,27.8920183 167.014662,27.3629009 C165.705051,26.8337836 164.226086,26.8860037 162.959042,27.5016108 C147.763452,34.8870461 135.6093,47.0968268 128.290897,62.1967971 L127.873644,51.1679287 C127.819124,49.6743842 126.923398,48.3979084 125.536337,47.8374992 C124.149275,47.2770899 122.61823,47.5730866 121.542457,48.6072329 L107.491903,62.0983833 L72.1301754,149.621731 C69.5823211,151.434352 67.5876471,153.945507 66.400452,156.883918 L63.4381534,164.215864 C63.1024768,165.046693 63.4235244,165.995431 64.1937603,166.454051 L65.1117611,166.999673 L60.925286,177.361562 L53.2205236,191.505518 C52.9740507,191.960144 52.9317645,192.497267 53.1058723,192.985314 C53.2799802,193.473362 53.6551433,193.862455 54.133926,194.055896 L57.5839775,195.449807 L55.9750456,198.823905 C55.7600788,199.27488 55.7394604,199.798917 55.9207037,200.262546 C56.1009987,200.728523 56.4668212,201.100192 56.931522,201.287943 L68.2932222,205.878368 C68.7579231,206.066119 69.2792567,206.052885 69.7326446,205.842933 C70.1869807,205.630634 70.534279,205.244044 70.6929184,204.770312 L71.877048,201.224583 L75.3294465,202.619442 C75.8105761,202.813831 76.3483858,202.793603 76.8126548,202.563476 C77.2759756,202.335697 77.6186744,201.919948 77.7581348,201.419356 L82.0448024,185.883481 L84.9151217,178.779191 L88.2245284,180.744198 L81.7983129,196.64964 C81.4228103,197.579041 81.8718041,198.636804 82.8012058,199.012307 L92.4073696,202.893449 C93.3367712,203.268952 94.3912393,202.821357 94.7676902,201.889608 L98.326431,193.081415 L101.304741,194.284731 L97.746,203.092923 C97.3704973,204.022325 97.8171442,205.07914 98.7488928,205.455591 L108.355057,209.336733 C109.284458,209.712236 110.341273,209.265589 110.717724,208.33384 L117.141593,192.42745 L120.891883,193.314746 L118.020616,200.421383 L110.313009,214.572379 C110.066536,215.027005 110.024249,215.564128 110.198357,216.052176 C110.374812,216.541171 110.747628,216.929316 111.226411,217.122757 L114.678809,218.517617 L113.067531,221.890766 C112.852564,222.341741 112.831945,222.865778 113.013189,223.329407 C113.194432,223.793037 113.559306,224.167053 114.024007,224.354804 L125.385707,228.945229 C125.850408,229.13298 126.371742,229.119746 126.82513,228.909794 C127.279466,228.697495 127.626764,228.310906 127.783056,227.836225 L128.969533,224.291444 L132.419584,225.685355 C132.900714,225.879744 133.438524,225.859516 133.902793,225.629389 C134.368461,225.402558 134.708812,224.985861 134.848273,224.485269 L139.133992,208.951741 L143.317622,198.596892 L144.356998,198.842101 C145.229644,199.047248 146.117288,198.586854 146.452964,197.756025 L149.415263,190.424079 C150.601012,187.496004 150.907263,184.305412 150.334591,181.229286 L150.334591,181.229286 L150.334591,181.229286 Z M118.511798,189.036073 L121.682709,181.187793 L145.370716,190.758369 L143.671472,194.964146 L118.511798,189.036073 L118.511798,189.036073 Z M124.4166,71.319771 L99.0502597,134.103668 C95.3954128,137.142578 91.3800295,139.776464 87.0645138,141.936907 L77.1466199,146.895424 L110.029651,65.5070661 L124.4166,71.319771 L124.4166,71.319771 Z M75.9478294,151.551835 L88.6885801,145.181195 C96.4583765,141.295882 103.310042,135.953046 108.920792,129.519148 L94.1244713,166.141327 L70.5585072,156.620059 C71.8159073,154.447136 73.6815548,152.681036 75.9478294,151.551835 L75.9478294,151.551835 L75.9478294,151.551835 Z M133.992049,87.5885596 L148.928191,93.6231524 C147.990868,102.720582 145.810956,111.616283 142.413394,120.167446 L120.236839,111.207536 C123.737668,102.698096 128.349044,94.7847703 133.992049,87.5885596 L133.992049,87.5885596 L133.992049,87.5885596 Z M136.388238,84.6444678 C137.343059,83.517772 138.324146,82.4071491 139.334299,81.3191894 C141.348962,79.1437204 143.993941,79.1448972 145.798764,79.874093 C147.60124,80.6023405 149.507991,82.4374521 149.445062,85.4042028 C149.413598,86.8875782 149.34783,88.3680143 149.254348,89.8427138 L136.388238,84.6444678 L136.388238,84.6444678 Z M118.873318,114.568853 L141.061609,123.533504 L119.008415,178.117074 L96.8201245,169.152423 L118.873318,114.568853 L118.873318,114.568853 Z M123.042484,177.822232 L137.836908,141.204747 C137.402635,149.732807 138.622709,158.328648 141.512868,166.520862 L146.257072,179.955883 C147.09959,182.343848 147.214788,184.910262 146.61409,187.343049 L123.043432,177.819885 L123.042484,177.822232 L123.042484,177.822232 Z M167.122136,88.5739274 L181.511432,94.3875805 L148.627453,175.778285 L144.933847,165.317635 C143.329347,160.76808 142.271023,156.089744 141.755297,151.365813 L167.124483,88.5748756 L167.122136,88.5739274 L167.122136,88.5739274 Z M181.148617,74.2977066 C181.175975,74.2705384 181.199088,74.2471159 181.267151,74.2746148 C181.332866,74.3011655 181.333222,74.3340704 181.336375,74.3735657 L181.952592,90.6536056 L169.396282,85.5805271 L181.148617,74.2977066 L181.148617,74.2977066 Z M164.544016,30.7683259 C165.250282,30.4257556 166.158561,30.7927241 166.428636,31.5297618 C171.155766,44.4664683 172.019522,58.3566812 169.040915,71.6145177 L134.822036,57.7891935 C141.886726,46.1822411 152.154666,36.7895256 164.544016,30.7683259 L164.544016,30.7683259 L164.544016,30.7683259 Z M129.594246,68.1944788 C130.597482,65.7113805 131.735848,63.2992584 132.997561,60.9670026 L168.131759,75.16214 L168.171585,75.0635671 C167.45283,77.6534131 166.587519,80.214078 165.570059,82.7323809 L141.415568,142.516845 C141.654111,135.263828 143.156979,128.043866 145.922993,121.197743 L145.913605,121.19395 C150.405053,109.773151 152.81903,97.7641658 153.075008,85.4811816 C153.155965,81.5170429 150.832951,77.9958218 147.15759,76.5108795 C143.482229,75.0259373 139.365147,75.9451907 136.672008,78.8539395 C128.323665,87.8673957 121.716594,98.1795305 117.012969,109.517336 L117.003581,109.513543 C114.238516,116.357318 110.306079,122.590211 105.442599,127.971902 L129.594246,68.1944788 L129.594246,68.1944788 L129.594246,68.1944788 Z M124.056132,51.2308453 C124.08349,51.2036771 124.10895,51.1812029 124.174666,51.2077536 C124.242728,51.2352525 124.245431,51.2691056 124.246237,51.3076527 L124.860107,67.5867444 L112.303797,62.5136659 L124.056132,51.2308453 L124.056132,51.2308453 Z M67.8594112,201.796342 L60.0744991,198.651033 L60.9490402,196.817571 L68.5016019,199.869004 L67.8594112,201.796342 L67.8594112,201.796342 Z M57.3768747,191.462108 L63.3828774,180.43482 L78.1383018,186.396399 L74.7984613,198.500885 L57.3768747,191.462108 L57.3768747,191.462108 Z M79.3164585,182.94654 L64.929509,177.133835 L68.262569,168.884222 L81.7562774,176.907776 L79.3164585,182.94654 L79.3164585,182.94654 Z M67.3816891,164.138343 L69.0809334,159.932566 L92.7665931,169.502193 L89.5947337,177.352821 L67.3816891,164.138343 L67.3816891,164.138343 Z M92.0796229,198.859736 L85.8366725,196.337421 L90.1606422,185.63522 C91.6929964,181.84251 95.6581043,179.74525 99.5327812,180.412522 L92.0796229,198.859736 L92.0796229,198.859736 Z M106.62531,181.115861 L102.658826,190.933252 L99.6805163,189.729937 L103.647,179.912545 C104.022503,178.983144 103.573509,177.92538 102.644107,177.549878 C99.5601834,176.303892 96.257677,176.416539 93.4045678,177.606223 L95.4612981,172.515636 L117.651935,181.481236 L115.595205,186.571822 C114.368326,183.736446 112.071901,181.358954 108.987977,180.112968 C108.058576,179.737465 107.001761,180.184112 106.62531,181.115861 L106.62531,181.115861 L106.62531,181.115861 Z M101.78436,202.780704 L109.23657,184.335837 C112.480264,186.544574 113.871946,190.789737 112.359363,194.574055 L108.024963,205.302072 L101.78436,202.780704 L101.78436,202.780704 Z M124.951896,224.863203 L117.166984,221.717895 L118.043872,219.885381 L125.596434,222.936814 L124.951896,224.863203 L124.951896,224.863203 Z M114.467013,214.528021 L120.473015,203.500733 L135.22844,209.462312 L131.886252,221.56585 L114.467013,214.528021 L114.467013,214.528021 Z M136.408943,206.013401 L122.019647,200.199748 L124.458518,194.163331 L139.741055,197.766135 L136.408943,206.013401 L136.408943,206.013401 Z" id="Shape-Copy" fill="url(#linearGradient-2)"></path>
        </g>
    </g>
</svg>

<?xml version="1.0" encoding="UTF-8" standalone="no"?>
<svg xmlns="http://www.w3.org/2000/svg" viewBox="0 0 268 268"><defs><linearGradient id="a" x1="50%" x2="50%" y1="0%" y2="100%"><stop stop-color="#FDFDFD" offset="0%"/><stop stop-color="#E0E3E7" offset="100%"/></linearGradient><linearGradient id="b" x1="50%" x2="50%" y1="0%" y2="100%"><stop stop-color="#FBDA61" offset="0%"/><stop stop-color="#F76B1C" offset="100%"/></linearGradient><filter id="c" width="200%" height="200%" x="-50%" y="-50%" filterUnits="objectBoundingBox"><feOffset dy="1" in="SourceAlpha" result="shadowOffsetOuter1"/><feGaussianBlur stdDeviation="2" in="shadowOffsetOuter1" result="shadowBlurOuter1"/><feColorMatrix values="0 0 0 0 0 0 0 0 0 0 0 0 0 0 0 0 0 0 0.245 0" in="shadowBlurOuter1" result="shadowMatrixOuter1"/><feMerge><feMergeNode in="shadowMatrixOuter1"/><feMergeNode in="SourceGraphic"/></feMerge></filter></defs><g fill="none" fill-rule="evenodd" transform="translate(6 6)"><circle cx="128" cy="128" r="128" fill="url(#a)" stroke="url(#b)" stroke-width="11" filter="url(#c)"/><path fill="url(#b)" d="M150.335 181.23l35.362-87.526-.733-19.465c-.053-1.5-.95-2.78-2.336-3.34-1.39-.56-2.918-.27-3.995.77l-7.96 7.64c5.226-15.95 4.962-33.17-.836-49.04-.484-1.33-1.513-2.39-2.822-2.92-1.31-.53-2.79-.48-4.056.14-15.2 7.38-27.35 19.59-34.67 34.69l-.42-11.03c-.06-1.5-.95-2.77-2.34-3.33s-2.92-.27-4 .77l-14.05 13.49-35.36 87.52c-2.55 1.81-4.55 4.32-5.73 7.26l-2.97 7.33c-.34.83-.02 1.78.75 2.232l.916.547L60.9 177.33l-7.7 14.145c-.246.452-.29.99-.114 1.48.175.485.55.874 1.03 1.07l3.45 1.392-1.61 3.372c-.215.45-.236.977-.054 1.44.18.467.55.838 1.012 1.026l11.36 4.59c.463.185.984.172 1.44-.038.452-.21.8-.6.96-1.07l1.182-3.545 3.454 1.396c.48.196 1.02.176 1.484-.055.46-.224.804-.64.943-1.14l4.29-15.537 2.87-7.106 3.31 1.966-6.43 15.9c-.374.93.075 1.99 1.004 2.36l9.608 3.88c.93.38 1.986-.07 2.36-1l3.56-8.81 2.98 1.208-3.56 8.81c-.375.93.07 1.987 1.004 2.364l9.608 3.88c.93.376 1.99-.07 2.37-1l6.426-15.91 3.75.89-2.87 7.105-7.71 14.153c-.245.454-.29.99-.114 1.48.178.49.55.876 1.03 1.07l3.45 1.395-1.612 3.37c-.216.45-.237.976-.056 1.44.18.463.548.837 1.01 1.025l11.365 4.59c.463.19.99.177 1.44-.033.452-.214.8-.6.96-1.075l1.19-3.55 3.45 1.394c.48.195 1.02.175 1.48-.056.463-.225.804-.642.943-1.143l4.287-15.53 4.186-10.353 1.04.243c.874.2 1.76-.26 2.097-1.09l2.963-7.33c1.18-2.927 1.49-6.12.92-9.194zm-31.823 7.806l3.17-7.848 23.69 9.57-1.7 4.206-25.16-5.928zm5.905-117.716L99.05 134.104c-3.655 3.04-7.67 5.672-11.985 7.833l-9.918 4.958 32.883-81.388 14.387 5.813zm-48.47 80.232l12.742-6.37c7.76-3.886 14.62-9.23 20.23-15.663l-14.8 36.62-23.57-9.52c1.25-2.18 3.12-3.94 5.39-5.07zm58.045-63.963l14.936 6.03c-.937 9.1-3.117 17.99-6.515 26.54l-22.176-8.96c3.5-8.51 8.112-16.42 13.755-23.62zm2.396-2.95c.955-1.13 1.936-2.24 2.946-3.33 2.015-2.18 4.66-2.18 6.465-1.45 1.8.73 3.7 2.56 3.64 5.53-.03 1.48-.1 2.96-.19 4.44l-12.87-5.2zm-17.515 29.92l22.19 8.96-22.055 54.58-22.188-8.97 22.053-54.59zm4.17 63.25l14.794-36.62c-.434 8.52.786 17.12 3.676 25.31l4.744 13.43c.843 2.39.958 4.952.357 7.39l-23.57-9.527h-.002zm44.08-89.25l14.388 5.81-32.88 81.39-3.69-10.46c-1.6-4.55-2.66-9.23-3.18-13.95l25.37-62.79zm14.027-14.27c.02-.03.05-.05.112-.03.066.02.066.06.07.1l.616 16.28-12.557-5.08 11.76-11.27zm-16.61-43.53c.705-.34 1.614.02 1.884.76 4.726 12.93 5.59 26.82 2.61 40.08L134.82 57.78c7.07-11.61 17.34-21 29.73-27.022zm-34.95 37.43c1.004-2.49 2.143-4.9 3.405-7.23l35.135 14.2.04-.1c-.72 2.59-1.583 5.15-2.6 7.67l-24.155 59.78c.238-7.26 1.74-14.48 4.507-21.32l-.01-.01c4.492-11.42 6.906-23.43 7.162-35.715.08-3.97-2.242-7.49-5.917-8.97-3.676-1.49-7.793-.57-10.486 2.34-8.34 9.01-14.95 19.32-19.66 30.66v-.008c-2.76 6.84-6.7 13.074-11.56 18.46l24.15-59.78zm-5.537-16.97c.027-.03.053-.05.12-.03.067.025.07.06.07.1l.614 16.28L112.3 62.5l11.753-11.282zM67.86 201.79l-7.786-3.14.875-1.83 7.55 3.05-.65 1.93zm-10.483-10.33l6.006-11.027 14.755 5.96-3.34 12.106-17.42-7.04zm21.94-8.515l-14.387-5.813 3.333-8.25 13.493 8.024-2.44 6.04zm-11.935-18.81l1.7-4.204 23.685 9.57-3.172 7.85-22.213-13.21zM92.08 198.86l-6.243-2.523 4.324-10.702c1.54-3.792 5.5-5.89 9.38-5.222l-7.46 18.447zm14.545-17.744l-3.966 9.817-2.98-1.203 3.96-9.817c.37-.93-.08-1.988-1.01-2.363-3.09-1.246-6.39-1.133-9.24.056l2.05-5.09 22.19 8.965-2.06 5.1c-1.228-2.83-3.524-5.21-6.608-6.46-.93-.37-1.986.07-2.363 1.01zm-4.84 21.665l7.452-18.44c3.243 2.21 4.635 6.46 3.122 10.24l-4.34 10.73-6.24-2.52zm23.167 22.09l-7.785-3.14.877-1.83 7.552 3.05-.644 1.93zm-10.485-10.33l6.006-11.02 14.755 5.96-3.342 12.11-17.42-7.04zm21.942-8.51l-14.39-5.81 2.44-6.03 15.28 3.605-3.33 8.247z"/></g></svg>
